X: 66
T: No_160_Love_Song.krn
%%abc-version 2.0
%%abcx-abcm2ps-target-version 5.9.1 (29 Sep 2008)
%%abc-creator hum2abc beta
%%abcx-conversion-date 2020/08/10 18:54:57
%%humdrum-veritas 1386269783
%%humdrum-veritas-data 2266016179
%%linebreak <none>
%%barnumbers 0
L: 1/4
M: 5/4
K: C clef=treble
[K:clef=treble][M:5/4]GG/G/GGG ||  
[M:4/4]E3C ||  
[M:5/4]E2-E2C | 
C3-C2 | 
EE/E/EEE ||  
[M:4/4]^D>EEC/C/ | 
E>C C/<E/A,[K:clef=bass] | 
G,2-G,2 ||  
[M:5/4]CC/C/CCC ||  
[M:4/4]_A,2G,E,/E,/ | 
G,>E,G,E, ||  
[M:5/4]C,3-C,2[K:clef=treble] | 
GG/G/GE2- ||  
[M:3/4]E/C/CC[K:clef=bass] ||  
[M:4/4]E>CEA, ||  
[M:5/4]G,3-G,2 ||  
[M:3/4]CCC ||  
[M:4/4]_A,2G,E, | 
G,>E,G,E, | 
C,4 |]  


